; generated by PrusaSlicer 2.4.0-alpha3+win64 on 2021-10-11 at 06:10:58 UTC

; 

; external perimeters extrusion width = 0.45mm
; perimeters extrusion width = 0.45mm
; infill extrusion width = 0.45mm
; solid infill extrusion width = 0.45mm
; top infill extrusion width = 0.40mm
; first layer extrusion width = 0.42mm

M73 P0 R150
M73 Q0 S151
M201 X1000 Y1000 Z200 E5000 ; sets maximum accelerations, mm/sec^2
M203 X200 Y200 Z12 E120 ; sets maximum feedrates, mm/sec
M204 P1250 R1250 T1250 ; sets acceleration (P, T) and retract acceleration (R), mm/sec^2
M205 X8.00 Y8.00 Z0.40 E4.50 ; sets the jerk limits, mm/sec
M205 S0 T0 ; sets the minimum extruding and travel feed rate, mm/sec
M107
;TYPE:Custom
M862.3 P "MK3S" ; printer model check
M862.1 P0.4 ; nozzle diameter check
M115 U3.10.0 ; tell printer latest fw version
G90 ; use absolute coordinates
M83 ; extruder relative mode
M104 S215 ; set extruder temp
M140 S60 ; set bed temp
M190 S60 ; wait for bed temp
M109 S215 ; wait for extruder temp
G28 W ; home all without mesh bed level
G80 ; mesh bed leveling
G1 Y-3.0 F1000.0 ; go outside print area
G92 E0.0
G1 X60.0 E9.0 F1000.0 ; intro line
G1 X100.0 E12.5 F1000.0 ; intro line
G92 E0.0
M221 S95

; Don't change E values below. Excessive value can damage the printer.
M907 E430 ; set extruder motor current
G21 ; set units to millimeters
G90 ; use absolute coordinates
M83 ; use relative distances for extrusion
M900 K0.05 ; Filament gcode LA 1.5
M900 K30 ; Filament gcode LA 1.0
M107
;LAYER_CHANGE
;Z:0.2
;HEIGHT:0.2
;BEFORE_LAYER_CHANGE
G92 E0.0

;0.2
G1 E-.8 F2100
G1 Z.4 F10800
;AFTER_LAYER_CHANGE
;0.2
G1 X107.067 Y87.749
G1 Z.2
G1 E.8 F2100
M204 S1000
;TYPE:Skirt/Brim
;WIDTH:0.42
G1 F1200
G1 X108.137 Y87.597 E.03389
G1 X149.38 Y87.567 E1.29313
G1 X150.056 Y87.615 E.02126
G1 X150.672 Y87.767 E.0199
G1 X151.185 Y87.999 E.01766
G1 X151.625 Y88.307 E.01683
G1 X152.273 Y89.11 E.03236
G1 X152.477 Y89.602 E.01671
G1 X152.596 Y90.284 E.0217
G1 X152.612 Y117.705 E.85976
G1 X152.499 Y118.407 E.0223
G1 X152.29 Y118.919 E.01733
G1 X151.973 Y119.39 E.01779
G1 X151.458 Y119.868 E.02204
G1 X150.536 Y120.314 E.03211
G1 X149.463 Y120.465 E.03396
G1 X108.166 Y120.481 E1.29485
G1 X107.357 Y120.397 E.0255
G1 X106.611 Y120.148 E.02465
G1 X105.989 Y119.747 E.02321
G1 X105.498 Y119.206 E.02291
G1 X105.133 Y118.455 E.02617
G1 X105.008 Y117.625 E.02632
G1 X104.993 Y90.455 E.85191
G1 X105.061 Y89.837 E.0195
M73 Q0 S150
G1 X105.292 Y89.193 E.02147
G1 X105.641 Y88.665 E.01982
G1 X106.157 Y88.189 E.02201
G1 X107.013 Y87.775 E.02983
; printing object SmartTemperatureTower_PLA_180-225.stl id:0 copy 0
;WIPE_START
G1 F8640
G1 X108.137 Y87.597 E-.26281
G1 X110.29 Y87.595 E-.49719
;WIPE_END
G1 E-.04 F2100
G1 Z.6 F10800
G1 X108.324 Y90.766
G1 Z.2
G1 E.8 F2100
;TYPE:Perimeter
G1 F1200
G1 X108.827 Y90.833 E.01589
G1 X109.425 Y90.984 E.01935
G1 X110.044 Y91.209 E.02066
G1 X110.476 Y91.41 E.01492
G1 X111.003 Y91.716 E.01911
G1 X111.447 Y92.05 E.01743
G1 X111.721 Y92.307 E.01177
G1 X111.957 Y92.575 E.01119
G1 X112.158 Y92.849 E.01065
G1 X112.328 Y93.13 E.01029
G1 X112.472 Y93.415 E.01003
G1 X112.638 Y93.814 E.01355
G1 X113.009 Y94.879 E.03535
G1 X113.27 Y95.523 E.02181
G1 X113.589 Y96.139 E.02173
G1 X113.962 Y96.705 E.02125
G1 X114.249 Y97.065 E.01443
G1 X114.568 Y97.406 E.01464
G1 X115.102 Y97.868 E.02216
G1 X115.736 Y98.283 E.02376
G1 X116.482 Y98.642 E.02595
G1 X117.36 Y98.945 E.02913
G1 X118.398 Y99.196 E.03347
G1 X119.627 Y99.402 E.03907
G1 X121.082 Y99.564 E.0459
G1 X122.794 Y99.685 E.05382
G1 X124.79 Y99.767 E.06264
G1 X126.687 Y99.805 E.05949
G1 X129.244 Y99.816 E.08017
G1 X131.704 Y99.789 E.07712
G1 X133.515 Y99.737 E.05682
G1 X135.414 Y99.64 E.05961
G1 X137.037 Y99.503 E.05107
G1 X138.412 Y99.324 E.04349
G1 X139.573 Y99.102 E.03707
G1 X140.554 Y98.833 E.03188
G1 X141.382 Y98.511 E.02785
G1 X141.984 Y98.196 E.02129
G1 X142.59 Y97.779 E.02308
G1 X142.872 Y97.539 E.01163
G1 X143.205 Y97.21 E.01466
G1 X143.637 Y96.687 E.02126
G1 X144.012 Y96.116 E.02144
G1 X144.33 Y95.5 E.02174
G1 X144.59 Y94.855 E.02181
G1 X144.958 Y93.795 E.03516
G1 X145.223 Y93.193 E.02064
G1 X145.379 Y92.917 E.00995
G1 X145.569 Y92.64 E.01052
G1 X145.957 Y92.2 E.01839
G1 X146.366 Y91.85 E.01689
G1 X146.717 Y91.61 E.01331
G1 X147.117 Y91.384 E.01441
G1 X147.555 Y91.18 E.01516
G1 X148.013 Y91.007 E.01535
G1 X148.629 Y90.833 E.02009
G1 X149.036 Y90.759 E.01297
G1 X149.269 Y90.743 E.00732
G1 X149.053 Y91.064 E.01213
G1 X147.656 Y92.865 E.07146
G1 X147.079 Y93.704 E.03194
G1 X146.783 Y94.223 E.01872
G1 X146.614 Y94.575 E.01224
G1 X146.472 Y94.93 E.012
G1 X146.321 Y95.448 E.01691
G1 X146.239 Y95.965 E.01641
G1 X146.226 Y96.603 E.02002
G1 X146.303 Y97.311 E.02233
G1 X146.494 Y98.531 E.03871
G1 X146.531 Y98.968 E.01374
G1 X146.535 Y99.281 E.00983
G1 X146.515 Y99.593 E.0098
G1 X146.47 Y99.904 E.00984
G1 X146.396 Y100.218 E.01012
G1 X146.288 Y100.54 E.01065
G1 X146.143 Y100.874 E.01141
G1 X145.957 Y101.221 E.01234
G1 X145.729 Y101.582 E.0134
G1 X145.455 Y101.957 E.01454
G1 X145.136 Y102.344 E.01575
G1 X144.774 Y102.74 E.01682
G1 X143.438 Y104.02 E.05801
G1 X144.772 Y105.294 E.05786
G1 X145.359 Y105.957 E.02776
G1 X145.645 Y106.331 E.01478
G1 X145.889 Y106.697 E.01377
G1 X146.089 Y107.048 E.01268
G1 X146.247 Y107.386 E.0117
G1 X146.367 Y107.712 E.01088
G1 X146.453 Y108.028 E.01027
G1 X146.507 Y108.335 E.00978
G1 X146.54 Y108.758 E.0133
G1 X146.536 Y109.068 E.00971
G1 X146.5 Y109.505 E.01374
G1 X146.31 Y110.724 E.03871
G1 X146.235 Y111.427 E.02216
G1 X146.236 Y111.904 E.01495
G1 X146.269 Y112.244 E.01071
G1 X146.331 Y112.588 E.01096
G1 X146.428 Y112.947 E.01166
G1 X146.7 Y113.626 E.02294
G1 X146.887 Y113.986 E.0127
G1 X147.199 Y114.501 E.0189
G1 X147.792 Y115.335 E.03208
G1 X148.971 Y116.837 E.05986
G1 X149.283 Y117.295 E.01739
G1 X148.783 Y117.23 E.0158
G1 X148.185 Y117.078 E.01934
G1 X147.566 Y116.853 E.02066
G1 X147.134 Y116.653 E.01492
G1 X146.607 Y116.346 E.01912
G1 X146.162 Y116.012 E.01744
G1 X145.888 Y115.755 E.01178
G1 X145.652 Y115.487 E.0112
G1 X145.451 Y115.213 E.01066
G1 X145.281 Y114.932 E.0103
G1 X145.137 Y114.647 E.01003
G1 X144.971 Y114.248 E.01354
G1 X144.6 Y113.183 E.03535
G1 X144.339 Y112.538 E.02181
G1 X144.02 Y111.923 E.02174
G1 X143.645 Y111.351 E.02144
G1 X143.212 Y110.829 E.02126
G1 X142.879 Y110.501 E.01466
G1 X142.596 Y110.261 E.01163
G1 X141.987 Y109.842 E.02318
G1 X141.261 Y109.474 E.02553
G1 X140.407 Y109.161 E.02852
G1 X139.399 Y108.901 E.03266
G1 X138.205 Y108.688 E.03801
G1 X137.04 Y108.543 E.0368
G1 X135.418 Y108.408 E.05103
G1 X133.519 Y108.312 E.05962
G1 X131.349 Y108.256 E.06808
G1 X129.248 Y108.238 E.06586
G1 X126.692 Y108.252 E.08016
G1 X124.795 Y108.292 E.0595
G1 X122.799 Y108.376 E.06264
G1 X121.086 Y108.499 E.05382
G1 X119.632 Y108.663 E.0459
G1 X118.403 Y108.87 E.03907
G1 X117.366 Y109.123 E.03347
G1 X116.488 Y109.427 E.02913
G1 X115.743 Y109.786 E.02595
G1 X115.109 Y110.202 E.02376
G1 X114.575 Y110.665 E.02216
G1 X114.257 Y111.006 E.01464
G1 X113.97 Y111.366 E.01443
G1 X113.598 Y111.933 E.02125
G1 X113.279 Y112.548 E.02173
G1 X113.019 Y113.193 E.02181
G1 X112.649 Y114.258 E.03535
G1 X112.483 Y114.657 E.01355
G1 X112.34 Y114.943 E.01003
G1 X112.17 Y115.224 E.01029
G1 X111.97 Y115.498 E.01065
G1 X111.734 Y115.766 E.01119
G1 X111.46 Y116.023 E.01177
G1 X111.016 Y116.358 E.01743
G1 X110.49 Y116.665 E.01911
G1 X110.058 Y116.866 E.01492
G1 X109.439 Y117.091 E.02066
G1 X108.832 Y117.246 E.01965
G1 X108.335 Y117.31 E.01571
G1 X108.647 Y116.856 E.01727
G1 X109.825 Y115.353 E.05988
G1 X110.418 Y114.519 E.03208
G1 X110.73 Y114.003 E.01891
G1 X110.917 Y113.644 E.01271
G1 X111.189 Y112.964 E.02295
G1 X111.286 Y112.605 E.01166
G1 X111.349 Y112.262 E.01096
G1 X111.382 Y111.921 E.01071
G1 X111.383 Y111.444 E.01496
G1 X111.307 Y110.741 E.02217
G1 X111.116 Y109.521 E.03872
G1 X111.08 Y109.084 E.01375
G1 X111.076 Y108.775 E.00971
G1 X111.107 Y108.352 E.0133
G1 X111.161 Y108.045 E.00978
G1 X111.246 Y107.728 E.01027
G1 X111.365 Y107.403 E.01087
G1 X111.523 Y107.065 E.01169
G1 X111.722 Y106.714 E.01267
G1 X111.965 Y106.348 E.01376
G1 X112.25 Y105.973 E.01476
G1 X112.837 Y105.311 E.02774
G1 X114.168 Y104.035 E.05782
G1 X112.835 Y102.761 E.05782
G1 X112.248 Y102.099 E.02774
G1 X111.963 Y101.725 E.01476
G1 X111.72 Y101.36 E.01376
G1 X111.52 Y101.009 E.01267
G1 X111.362 Y100.671 E.01169
G1 X111.242 Y100.345 E.01087
G1 X111.157 Y100.029 E.01026
G1 X111.103 Y99.722 E.00978
G1 X111.07 Y99.299 E.0133
G1 X111.074 Y98.99 E.00971
G1 X111.11 Y98.553 E.01374
G1 X111.3 Y97.333 E.03872
G1 X111.375 Y96.629 E.02217
G1 X111.373 Y96.152 E.01496
G1 X111.34 Y95.812 E.01071
G1 X111.277 Y95.468 E.01096
G1 X111.179 Y95.11 E.01166
G1 X110.907 Y94.43 E.02295
G1 X110.719 Y94.071 E.01271
G1 X110.407 Y93.555 E.01891
G1 X109.813 Y92.722 E.03208
G1 X108.634 Y91.222 E.05982
G1 X108.358 Y90.816 E.01539
;WIPE_START
G1 F8640
G1 X108.827 Y90.833 E-.10829
G1 X109.425 Y90.984 E-.14247
G1 X110.044 Y91.209 E-.15217
G1 X110.476 Y91.41 E-.10986
G1 X111.003 Y91.716 E-.14072
G1 X111.371 Y91.993 E-.10648
;WIPE_END
G1 E-.04 F2100
G1 Z.6 F10800
G1 X143.983 Y104.019
G1 Z.2
G1 E.8 F2100
;TYPE:External perimeter
G1 F1200
G1 X145.043 Y105.033 E.04598
G1 X145.651 Y105.717 E.02869
G1 X145.952 Y106.112 E.01559
G1 X146.21 Y106.499 E.01457
G1 X146.424 Y106.875 E.01357
G1 X146.596 Y107.241 E.01267
G1 X146.727 Y107.597 E.01191
G1 X146.821 Y107.946 E.01133
G1 X146.882 Y108.288 E.0109
G1 X146.917 Y108.746 E.01441
G1 X146.913 Y109.086 E.01064
G1 X146.875 Y109.549 E.01459
G1 X146.684 Y110.774 E.03885
G1 X146.612 Y111.447 E.02123
G1 X146.613 Y111.885 E.01375
G1 X146.642 Y112.192 E.00966
G1 X146.699 Y112.505 E.00997
G1 X146.786 Y112.827 E.01047
G1 X147.043 Y113.469 E.02167
G1 X147.215 Y113.801 E.01173
G1 X147.514 Y114.294 E.01808
G1 X148.094 Y115.109 E.03137
G1 X149.275 Y116.614 E.05998
G1 X149.647 Y117.16 E.02071
G1 X149.766 Y117.39 E.00811
G1 X149.821 Y117.573 E.00598
G1 X149.812 Y117.612 E.00127
G1 X149.763 Y117.635 E.00169
G1 X149.638 Y117.663 E.00402
G1 X149.272 Y117.674 E.01149
G1 X148.712 Y117.601 E.0177
G1 X148.074 Y117.439 E.02062
G1 X147.422 Y117.202 E.02176
G1 X146.959 Y116.987 E.01599
G1 X146.398 Y116.661 E.02036
G1 X145.92 Y116.301 E.01877
G1 X145.618 Y116.018 E.01298
G1 X145.358 Y115.724 E.0123
G1 X145.137 Y115.422 E.01172
G1 X144.951 Y115.115 E.01127
G1 X144.794 Y114.804 E.01092
G1 X144.619 Y114.382 E.01433
G1 X144.247 Y113.316 E.03541
G1 X143.996 Y112.696 E.02097
G1 X143.695 Y112.113 E.02057
G1 X143.341 Y111.576 E.02017
G1 X142.934 Y111.085 E.02001
G1 X142.625 Y110.779 E.01362
G1 X142.367 Y110.561 E.01059
G1 X141.794 Y110.167 E.02179
G1 X141.111 Y109.82 E.02404
G1 X140.295 Y109.522 E.02724
G1 X139.318 Y109.269 E.03163
G1 X138.149 Y109.061 E.03725
G1 X137.001 Y108.918 E.03625
G1 X135.393 Y108.784 E.0506
G1 X133.505 Y108.689 E.05928
G1 X131.342 Y108.633 E.06783
G1 X129.248 Y108.615 E.06568
G1 X126.697 Y108.629 E.07998
G1 X124.807 Y108.669 E.05928
G1 X122.82 Y108.753 E.06234
G1 X121.121 Y108.875 E.05341
G1 X119.684 Y109.037 E.04534
G1 X118.479 Y109.239 E.03832
G1 X117.473 Y109.485 E.03248
G1 X116.632 Y109.776 E.02788
G1 X115.929 Y110.115 E.02449
G1 X115.337 Y110.503 E.02219
G1 X114.837 Y110.936 E.02074
G1 X114.543 Y111.252 E.01355
G1 X114.276 Y111.588 E.01343
G1 X113.924 Y112.123 E.0201
G1 X113.622 Y112.706 E.02056
G1 X113.372 Y113.326 E.02096
G1 X113.002 Y114.392 E.0354
G1 X112.826 Y114.814 E.01433
G1 X112.67 Y115.125 E.01092
G1 X112.484 Y115.433 E.01126
G1 X112.264 Y115.735 E.01171
G1 X112.005 Y116.029 E.0123
G1 X111.703 Y116.312 E.01297
G1 X111.225 Y116.672 E.01876
G1 X110.665 Y117 E.02035
G1 X110.203 Y117.215 E.01598
G1 X109.551 Y117.452 E.02176
G1 X108.91 Y117.616 E.02074
G1 X108.62 Y117.664 E.00922
G1 X108.292 Y117.692 E.01031
G1 X108.078 Y117.689 E.00669
G1 X107.92 Y117.667 E.00503
G1 X107.8 Y117.618 E.00404
G1 X107.815 Y117.516 E.00324
G1 X107.894 Y117.322 E.00656
G1 X108.005 Y117.125 E.0071
G1 X108.343 Y116.633 E.01871
G1 X109.523 Y115.128 E.05997
G1 X110.103 Y114.312 E.03137
G1 X110.401 Y113.819 E.01809
G1 X110.574 Y113.487 E.01174
G1 X110.831 Y112.845 E.02168
G1 X110.918 Y112.522 E.01048
G1 X110.975 Y112.209 E.00997
G1 X111.005 Y111.903 E.00966
G1 X111.006 Y111.464 E.01375
G1 X110.933 Y110.791 E.02124
G1 X110.741 Y109.566 E.03886
G1 X110.703 Y109.103 E.01459
G1 X110.698 Y108.763 E.01064
G1 X110.733 Y108.305 E.0144
G1 X110.792 Y107.963 E.01089
G1 X110.886 Y107.614 E.01132
G1 X111.017 Y107.258 E.0119
G1 X111.188 Y106.892 E.01266
G1 X111.401 Y106.516 E.01355
G1 X111.658 Y106.129 E.01455
G1 X111.959 Y105.734 E.01558
G1 X112.565 Y105.05 E.02866
G1 X113.623 Y104.036 E.04595
G1 X112.563 Y103.023 E.04595
G1 X111.957 Y102.339 E.02866
G1 X111.656 Y101.944 E.01558
G1 X111.398 Y101.558 E.01455
G1 X111.185 Y101.182 E.01355
G1 X111.014 Y100.816 E.01266
G1 X110.882 Y100.46 E.0119
G1 X110.788 Y100.111 E.01132
G1 X110.728 Y99.769 E.01089
G1 X110.693 Y99.311 E.0144
G1 X110.697 Y98.972 E.01064
G1 X110.735 Y98.508 E.01459
G1 X110.926 Y97.284 E.03886
G1 X110.998 Y96.61 E.02124
G1 X110.996 Y96.171 E.01375
G1 X110.966 Y95.865 E.00966
G1 X110.909 Y95.552 E.00997
G1 X110.821 Y95.23 E.01048
G1 X110.564 Y94.588 E.02168
G1 X110.391 Y94.256 E.01174
G1 X110.092 Y93.763 E.01808
G1 X109.511 Y92.948 E.03137
G1 X108.33 Y91.444 E.05995
G1 X107.959 Y90.899 E.02068
G1 X107.841 Y90.67 E.00809
G1 X107.786 Y90.488 E.00595
G1 X107.796 Y90.45 E.00125
G1 X107.845 Y90.427 E.00171
G1 X107.971 Y90.399 E.00404
G1 X108.338 Y90.388 E.01151
G1 X108.898 Y90.462 E.01772
G1 X109.536 Y90.624 E.02063
G1 X110.188 Y90.86 E.02176
G1 X110.651 Y91.075 E.01598
G1 X111.211 Y91.402 E.02035
G1 X111.69 Y91.761 E.01876
G1 X111.992 Y92.044 E.01297
G1 X112.251 Y92.338 E.0123
G1 X112.472 Y92.64 E.01171
G1 X112.658 Y92.947 E.01126
G1 X112.815 Y93.258 E.01091
G1 X112.99 Y93.68 E.01433
G1 X113.362 Y94.746 E.0354
G1 X113.613 Y95.365 E.02096
G1 X113.915 Y95.948 E.02056
G1 X114.268 Y96.483 E.0201
G1 X114.535 Y96.818 E.01343
G1 X114.83 Y97.134 E.01355
G1 X115.33 Y97.566 E.02074
G1 X115.922 Y97.954 E.02219
G1 X116.626 Y98.292 E.02449
G1 X117.467 Y98.582 E.02788
G1 X118.473 Y98.827 E.03248
G1 X119.679 Y99.028 E.03832
G1 X121.116 Y99.188 E.04534
G1 X122.815 Y99.309 E.05341
G1 X124.802 Y99.39 E.06234
G1 X126.692 Y99.428 E.05928
G1 X129.243 Y99.439 E.07998
G1 X131.696 Y99.412 E.07693
G1 X133.5 Y99.36 E.05658
G1 X135.388 Y99.263 E.05928
G1 X136.997 Y99.128 E.05061
G1 X138.353 Y98.952 E.04287
G1 X139.488 Y98.735 E.03624
G1 X140.435 Y98.474 E.03081
G1 X141.226 Y98.167 E.02659
G1 X141.789 Y97.873 E.01991
G1 X142.36 Y97.479 E.02176
G1 X142.617 Y97.26 E.01059
G1 X142.926 Y96.955 E.01362
G1 X143.333 Y96.463 E.02001
G1 X143.686 Y95.925 E.02017
G1 X143.987 Y95.342 E.02057
G1 X144.237 Y94.722 E.02096
G1 X144.607 Y93.657 E.03534
G1 X144.885 Y93.023 E.02172
G1 X145.059 Y92.717 E.01105
G1 X145.268 Y92.413 E.01155
G1 X145.698 Y91.925 E.02041
G1 X146.137 Y91.55 E.01808
G1 X146.517 Y91.29 E.01445
G1 X146.944 Y91.048 E.01539
G1 X147.409 Y90.832 E.01607
G1 X147.895 Y90.649 E.01629
G1 X148.544 Y90.465 E.02116
G1 X148.99 Y90.384 E.01421
G1 X149.426 Y90.355 E.0137
G1 X149.728 Y90.392 E.00953
G1 X149.797 Y90.419 E.00233
G1 X149.809 Y90.45 E.00105
G1 X149.732 Y90.685 E.00777
G1 X149.6 Y90.927 E.00862
G1 X149.359 Y91.285 E.01355
G1 X147.96 Y93.087 E.07152
G1 X147.398 Y93.905 E.03111
G1 X147.117 Y94.398 E.01781
G1 X146.829 Y95.053 E.02243
G1 X146.69 Y95.531 E.0156
G1 X146.615 Y95.999 E.01485
G1 X146.603 Y96.587 E.01844
G1 X146.677 Y97.262 E.02129
G1 X146.869 Y98.486 E.03885
G1 X146.908 Y98.95 E.01458
G1 X146.912 Y99.29 E.01069
G1 X146.891 Y99.632 E.01073
G1 X146.841 Y99.975 E.01086
G1 X146.758 Y100.321 E.01118
G1 X146.64 Y100.675 E.01169
G1 X146.483 Y101.038 E.0124
G1 X146.283 Y101.411 E.01325
G1 X146.041 Y101.794 E.01422
G1 X145.753 Y102.188 E.01528
G1 X145.421 Y102.592 E.0164
G1 X145.043 Y103.004 E.01752
G1 X144.026 Y103.978 E.04416
G1 X143.704 Y104.306 F10800
;WIPE_START
G1 F8640
G1 X145.043 Y105.033 E-.33831
G1 X145.651 Y105.717 E-.21126
G1 X145.952 Y106.112 E-.11483
G1 X146.182 Y106.457 E-.0956
;WIPE_END
G1 E-.04 F2100
G1 Z.6 F10800
G1 X148.743 Y91.28
G1 Z.2
G1 E.8 F2100
;TYPE:Solid infill
